X:1
T:Title
%%score { 1 | ( 2 3 ) }
L:1/8
M:4/4
K:Ab
V:1 treble nm="Grand Piano"
V:2 bass 
V:3 bass 
V:1
 z2[Q:1/4=100] [Ec]>_c =c[CA]GF |[M:3/4] [DG]G G .[G,D]3 | [DB]>=A BF GB | [CE]6 | %4
 [Ec]>_c =c[ce] cB | [FA]>G A .[=Ec]3 | [FA][=EG] F[_EG] GF | E6 | [Gd]2 z .[Gc]3 | %9
 [GB][_G=A] [=GB] .E3 | e2 z .d3 | c_c =c e2 e | [=Af]2 [Fc][Fc] [FB][Fc] | %13
 [Fd]2 [DF][DFB] [DFA][A,DF] | [A,CE]2 z [DGB]2 [B,EG] | [CEA]6 |] %16
V:2
 z2 z z/ =D/ .E2 E_D |[M:3/4] z D D .E,3 | z z/ C/ DD DD | A,2 E, .A,,3 | %4
 z z/ =D/ .E2[K:treble] AG | z z/ =E/ F .C,3 | z2 z .B,3 | [E,G,]6 | [E,B,]2 z .[E,C]3 | %9
 [E,D][E,C] [E,D] .[E,G,]3 | [A,CE]2 z .[A,F]3 | [A,F][A,=D] [A,E] [A,CA]2 [A,CA] | %12
 [F,C]2 [F,=A,][E,A,] [D,B,][C,A,] | [B,,B,]2 B,,D, D,D, | E,2 z E,2 E, | A,,6 |] %16
V:3
 z2 [A,,A,]2 z .[E,,E,]3 |[M:3/4] [B,,E,]2 z2 z2 | E,,2 z .[E,G,]3 | x6 | A,2 z .A,,3[K:treble] | %5
 D,2 z2 z2 | F,G, .A,2 D[B,,A,] | x6 | x6 | x6 | x6 | x6 | x6 | x6 | x6 | x6 |] %16

